X: 76
T: No_167_Hair_Dance_Song_(e).krn
N: Derived from No_167_Hair_Dance_Song_(e).krn
%%abc-version 2.0
%%abcx-abcm2ps-target-version 5.9.1 (29 Sep 2008)
%%abc-creator hum2abc beta
%%abcx-conversion-date 2019/03/15 08:38:45
%%humdrum-veritas 3698836603
%%humdrum-veritas-data 1696078481
%%linebreak <none>
%%barnumbers 0
L: 1/8
M: 2/4
K: E clef=bass
[K:clef=bass][M:2/4]E,2B,2 | 
CB, G,G, | 
B,2G,2 ||  
[M:3/4]G,4B,2 ||  
[M:2/4]G,F,E,2 | 
C,2E,2 ||  
[M:7/8](C,B,,)(C,B,,)G,,G,,G,, ||  
[M:2/4]B,,B,, B,, z ||  
[M:3/4]C,B,, E,E, C,B,, ||  
[M:2/4]G,,2z2 | 
B,,B,,B,,2 | 
B,,2B,2 | 
CB, CB, ||  
[M:3/4]G,2B,2G,G, | 
G,4B,2 ||  
[M:2/4](G,F,) (F,E,) | 
C,2E,2 | 
(C,B,,) (C,B,,) | 
G,,2B,,2 | 
B,,2z2 | 
C,2E,2 | 
C,B,,G,,2 | 
B,,2z2 | 
B,,2z2 | 
z4 | 
(C,B,,) (C,B,,) | 
G,,2B,,2 | 
B,,2z2 |]  



